icon-svg/royalmail.svg

<svg xmlns="http://www.w3.org/2000/svg" fill="#44739e" viewBox="0 0 24 24"><path d="M13.506 7.192a1.18 1.18 0 0 0-.52.134 2.19 2.19 0 0 1-.676.235v.206c.389-.017.756-.289 1.12-.291.415 0 .472.416.467.545a1.026 1.026 0 0 1-.1.446c-.017-.1-.084-.419-.2-.474a.965.965 0 0 0-.624-.02 2.48 2.48 0 0 0-.66-.111v-.095h-.036l-.027-.2.063-.008V7.45l-.14-.058v1.12h-.335v-1.12l-.14.058v.111l.063.008-.027.2h-.036v.095a2.48 2.48 0 0 0-.66.111.965.965 0 0 0-.624.02c-.111.055-.186.37-.2.474a1.04 1.04 0 0 1-.1-.447c0-.128.052-.547.467-.544.364 0 .731.274 1.12.291v-.208a2.22 2.22 0 0 1-.676-.235 1.165 1.165 0 0 0-.52-.134c-.2 0-.668.116-.641.8a1.4 1.4 0 0 0 .21.723l.247-.075-.033.094h.388a.11.11 0 0 1 .1 0h.069a.435.435 0 0 1 .107-.538.48.48 0 0 1 .187.539h.045a.161.161 0 0 1 .121-.058.087.087 0 0 1 .074.058h.237V8.7a.3.3 0 0 0 .024.029h.21a.4.4 0 0 0-.07-.085.4.4 0 0 0-.057-.048h.565a.4.4 0 0 0-.057.048.4.4 0 0 0-.07.085h.21a.3.3 0 0 0 .024-.029v.029h.236a.088.088 0 0 1 .074-.058.161.161 0 0 1 .121.058h.046a.477.477 0 0 1 .187-.539.437.437 0 0 1 .106.539h.07a.108.108 0 0 1 .1 0h.389l-.032-.094.247.075a1.4 1.4 0 0 0 .209-.722c.026-.679-.438-.794-.642-.796m.076 2.967H10.41a.203.203 0 1 0 0 .406h3.172a.203.203 0 1 0 0-.406m-2.692-.197c0 .069.112.126.249.126s.248-.057.248-.126-.111-.126-.248-.126-.249.056-.249.126m-.539.115h.282v-.231h-.282l-.098.114Zm1.333-.231h.624v.231h-.624zm1.675 0v.231h.282l.099-.117-.099-.114Zm-.753.116c0 .069.11.126.248.126s.248-.057.248-.126-.111-.126-.248-.126-.248.056-.248.126M11.1 9.334c-.016-.027-.037-.026-.052 0a.58.58 0 0 1-.428.249.406.406 0 0 1-.294-.11l.03.289h3.29l.03-.289a.406.406 0 0 1-.294.11.584.584 0 0 1-.428-.249c-.015-.025-.036-.026-.052 0a.521.521 0 0 1-.488.267.46.46 0 0 1-.414-.223.456.456 0 0 1-.412.223.523.523 0 0 1-.488-.267m.536-.603.024.024c.078.075.168.11.2.08s.013-.059-.014-.105h-.21zm1.475.106a.39.39 0 0 1 .118-.106h-.068a1 1 0 0 1-.05.106m.223-.107a.242.242 0 0 1-.073.342c-.032-.074-.069-.081-.1-.074s-.062.026-.08.1l-.231-.018a.112.112 0 0 0-.085-.115.127.127 0 0 0-.13.072.467.467 0 0 1 0-.3h-.236v.5c-.112-.193-.272-.215-.287-.053a.33.33 0 0 0 .324.3.435.435 0 0 0 .393-.251l.231.018a.374.374 0 0 0 .459.2c.1-.035.166-.087.143-.149s-.117-.014-.185.012c0 0 .1-.32.143-.457.012.038.069.174.143.132.04-.023.014-.117-.032-.253h-.389zm-1.177 0c-.027.046-.034.086-.014.105s.122-.005.2-.08l.024-.024h-.21zm-.703.001h-.079a.454.454 0 0 1-.005.3.127.127 0 0 0-.13-.072.114.114 0 0 0-.085.115l-.231.018c-.018-.07-.045-.088-.079-.1s-.071 0-.1.075a.242.242 0 0 1-.073-.342h-.392c-.046.135-.071.229-.031.252.073.042.13-.094.142-.131.047.136.143.456.143.456-.068-.026-.158-.084-.185-.012s.046.114.143.149a.374.374 0 0 0 .459-.2l.231-.018a.434.434 0 0 0 .393.252c.164 0 .337-.157.324-.3-.015-.162-.174-.139-.287.053v-.5h-.158zm-.275 0h-.044q-.007.043-.018.093a.37.37 0 0 1 .062-.093m-.288.106a1.1 1.1 0 0 1-.05-.107h-.069a.38.38 0 0 1 .119.107m1.994-.013c-.007-.033-.012-.064-.017-.093h-.046a.33.33 0 0 1 .063.093m-.954-2.083a.347.347 0 0 0-.268.271h.268zm.069.691a.347.347 0 0 0 .339-.279h-.677a.346.346 0 0 0 .338.279m-.538.036a.155.155 0 1 0-.153-.154.154.154 0 0 0 .153.154m-.357-.156a.154.154 0 1 0-.153-.154.153.153 0 0 0 .153.154m.895.164a.105.105 0 0 0-.1.105.1.1 0 0 0 .1.105.106.106 0 0 0 .105-.106.1.1 0 0 0-.105-.104m0 .264a.106.106 0 0 0-.1.106.1.1 0 0 0 .1.1.106.106 0 0 0 0-.211zm0 .265a.105.105 0 0 0 0 .21.105.105 0 0 0 0-.21m0 .264a.1.1 0 0 0-.1.105.1.1 0 0 0 .1.1.105.105 0 0 0 0-.21zM10.738 7.18a.155.155 0 1 0-.153-.154.153.153 0 0 0 .153.154m3.067-.168a.154.154 0 0 1-.154.154.154.154 0 0 1-.154-.154.154.154 0 0 1 .154-.154.154.154 0 0 1 .154.154m.295.458a.153.153 0 1 0 .152-.155.153.153 0 0 0-.152.155m-.095-.151a.155.155 0 1 0-.153-.154.154.154 0 0 0 .153.154m-.74-.139a.155.155 0 1 0-.153-.154.153.153 0 0 0 .153.154m-.365.132a.154.154 0 1 0-.152-.154.153.153 0 0 0 .152.154m-1-.805a.113.113 0 0 1-.025.151.4.4 0 0 1-.043.038h.337a.4.4 0 0 1-.04-.036.113.113 0 0 1-.025-.151c.024-.024.09 0 .149.063a.4.4 0 0 1 .038.045V6.2a.36.36 0 0 1-.036.042c-.059.059-.125.087-.149.063s0-.092.062-.151c.015-.014.028-.027.042-.038h-.41a.34.34 0 0 1 .041.036c.058.059.086.127.062.151s-.09 0-.149-.063a.5.5 0 0 1-.037-.044v.416a.4.4 0 0 1 .035-.041c.06-.06.126-.088.148-.064m.642.961a.155.155 0 0 0 0-.309.156.156 0 0 0-.154.155.154.154 0 0 0 .154.154m-.474-.728v.272h.272a.349.349 0 0 0-.272-.272m-2.317.884A.155.155 0 1 0 9.6 7.47a.153.153 0 0 0 .151.154m.082.608a.153.153 0 1 0-.3 0 .153.153 0 1 0 .3 0m-.052.216a.155.155 0 1 0 .153.154.153.153 0 0 0-.153-.154M9.66 8a.154.154 0 1 0-.152-.154A.152.152 0 0 0 9.66 8m.608 1.3c.04-.014.055-.081.031-.15s-.074-.114-.115-.1-.054.08-.031.15.074.112.115.1m.084-2.133a.155.155 0 1 0-.153-.155.155.155 0 0 0 .153.155m3.87 1.281a.155.155 0 1 0 .152.154.153.153 0 0 0-.152-.154m-.404.6c-.041-.014-.092.031-.115.1s-.009.136.031.15.092-.031.115-.1.009-.137-.031-.15m-1.702-.086a.115.115 0 1 0-.116.116.115.115 0 0 0 .116-.116m2.227-1.27a.153.153 0 0 0-.153.154.153.153 0 1 0 .153-.154M10 7.319a.155.155 0 1 0-.152-.154.152.152 0 0 0 .152.154m4.322.759a.155.155 0 1 0 .153.154.153.153 0 0 0-.153-.154m-4.134 6.389a.593.593 0 0 0 .422.177.6.6 0 0 0 .6-.6v-.6h-.6a.6.6 0 0 0-.422.177.608.608 0 0 0 0 .854zm9.498-1.996a.073.073 0 1 0 .073.073.073.073 0 0 0-.073-.073m-2.038 1.142a.606.606 0 0 0 0 .854.592.592 0 0 0 .422.177.6.6 0 0 0 .6-.6v-.6h-.6a.592.592 0 0 0-.422.169m-11.376-.227a.614.614 0 0 0-.44.184.631.631 0 0 0 0 .889.61.61 0 0 0 .44.185.631.631 0 0 0 .44-1.074.615.615 0 0 0-.44-.184m9.202-1.902v-6.23H8.536v6.23H2v4.957h6.536v2.3h6.938v-2.3H22v-4.957zm.5.872h.2l-.932 2.034-.932-2.034h.2l.731 1.6zm-7.3-6.964h6.662v6.092H8.674Zm5.547 6.964-.471 2.677h-.186l.471-2.677zm-1.793 0v2.674h-.183v-2.675zm-.253 0v2.674h-.183v-2.675zm-1.565.826a.861.861 0 0 0-.6 1.466.844.844 0 0 0 1.2 0 .86.86 0 0 0 .178-.266v.648h-.182v-.138a1.023 1.023 0 0 1-1.328-.113A1.047 1.047 0 0 1 10.61 13h1.033v2.033h-.183v-1.852zm.781.071v.788a.785.785 0 0 1-.781.788.768.768 0 0 1-.551-.231.792.792 0 0 1 0-1.114.768.768 0 0 1 .551-.231zm-3.582-.245h.182v1.027a.443.443 0 0 0 .128.311.428.428 0 0 0 .307.128.462.462 0 0 0 .435-.465v-1h.183v1a.643.643 0 0 1-.618.65.61.61 0 0 1-.436-.183.62.62 0 0 1-.181-.441Zm-3.133 2.016L3.747 13.7h.482a.463.463 0 0 0 .427-.476.454.454 0 0 0-.13-.313.4.4 0 0 0-.3-.119h-.488v2.236h-.183V12.6h.674a.588.588 0 0 1 .427.173.653.653 0 0 1-.427 1.105H4.1l.8 1.142zm.31 0-.751-1.072a.632.632 0 0 0 .45-.192.794.794 0 0 0 .224-.539.717.717 0 0 0-.2-.494.653.653 0 0 0-.476-.194h-.748v2.492H3.3v-2.677h.927a.83.83 0 0 1 .6.249.894.894 0 0 1 .258.624.974.974 0 0 1-.278.67.84.84 0 0 1-.269.184l.665.949zm2.034-.253a1.051 1.051 0 0 1-1.5 0 1.072 1.072 0 0 1 .749-1.825 1.043 1.043 0 0 1 .748.313 1.077 1.077 0 0 1 0 1.512zm.536-1.764h.182v1.027a.694.694 0 0 0 .2.491.678.678 0 0 0 .486.2.666.666 0 0 0 .474-.2.77.77 0 0 0 .144-.209v.558a.622.622 0 0 1-.618.624.61.61 0 0 1-.436-.183.62.62 0 0 1-.162-.287h.194a.431.431 0 0 0 .406.285.437.437 0 0 0 .435-.439v-.087a.815.815 0 0 1-.435.125.857.857 0 0 1-.615-.257.88.88 0 0 1-.255-.622Zm.87 2.748a.873.873 0 0 1-.856-.726h.186a.69.69 0 0 0 .184.337.681.681 0 0 0 .972 0 .69.69 0 0 0 .2-.491v-1.868H9.3v1.868a.88.88 0 0 1-.255.622.862.862 0 0 1-.619.258m6.91 2.853H8.674v-2.167h6.662zm1.145-3.575-.348-1.976L15.244 15l-.889-1.942-.349 1.976h-.185l.456-2.586.967 2.112.967-2.112.456 2.586zm.257 0-.471-2.677h.185l.472 2.677zm2.112-.993a.785.785 0 0 1-.78.788.768.768 0 0 1-.552-.231.794.794 0 0 1 0-1.114.768.768 0 0 1 .552-.231h.78zm.252.989h-.182v-1.848h-.85a.86.86 0 0 0-.6 1.466.843.843 0 0 0 1.2 0 .86.86 0 0 0 .179-.266v.648h-.183v-.138a1.023 1.023 0 0 1-1.328-.113A1.047 1.047 0 0 1 18.07 13h1.03zm.548 0h-.183v-2.024h.183zm.253 0h-.183v-2.024h.18zm-.217-2.247a.238.238 0 0 1 0-.475.238.238 0 0 1 0 .475m.792 2.247H20.3v-2.674h.182zm.253 0h-.183v-2.674h.183zM6.272 13.131a.885.885 0 0 0-.619 1.509.869.869 0 0 0 1.238 0 .891.891 0 0 0 0-1.25.864.864 0 0 0-.619-.259m0 1.7a.794.794 0 0 1-.57-.238.818.818 0 0 1 0-1.15.8.8 0 0 1 1.139 0 .815.815 0 0 1-.569 1.388"/></svg>

<?xml version="1.0" encoding="UTF-8"?>
<svg width="24px" fill="#44739e" height="24px" viewBox="0 0 24 24" version="1.1" xmlns="http://www.w3.org/2000/svg" xmlns:xlink="http://www.w3.org/1999/xlink">
            <path d="m 13.506,7.192 a 1.178,1.178 0 0 0 -0.52,0.134 2.19,2.19 0 0 1 -0.676,0.235 v 0.206 c 0.389,-0.017 0.756,-0.289 1.12,-0.291 0.415,0 0.472,0.416 0.467,0.545 a 1.026,1.026 0 0 1 -0.1,0.446 C 13.78,8.367 13.713,8.048 13.597,7.993 A 0.965,0.965 0 0 0 12.973,7.973 2.478,2.478 0 0 0 12.313,7.862 V 7.767 H 12.277 L 12.25,7.567 12.313,7.559 V 7.45 l -0.14,-0.058 v 1.12 h -0.335 v -1.12 l -0.14,0.058 v 0.111 l 0.063,0.008 -0.027,0.2 h -0.036 v 0.095 a 2.483,2.483 0 0 0 -0.66,0.111 0.965,0.965 0 0 0 -0.624,0.02 c -0.111,0.055 -0.186,0.37 -0.2,0.474 a 1.042,1.042 0 0 1 -0.1,-0.447 c 0,-0.128 0.052,-0.547 0.467,-0.544 0.364,0 0.731,0.274 1.12,0.291 V 7.561 A 2.217,2.217 0 0 1 11.025,7.326 1.165,1.165 0 0 0 10.505,7.192 c -0.2,0 -0.668,0.116 -0.641,0.8 a 1.4,1.4 0 0 0 0.21,0.723 L 10.321,8.64 10.288,8.734 h 0.388 v 0 a 0.11,0.11 0 0 1 0.1,0 h 0.069 a 0.435,0.435 0 0 1 0.107,-0.538 0.48,0.48 0 0 1 0.187,0.539 h 0.045 a 0.161,0.161 0 0 1 0.121,-0.058 0.087,0.087 0 0 1 0.074,0.058 h 0.237 V 8.7 a 0.307,0.307 0 0 0 0.024,0.029 h 0.21 A 0.4,0.4 0 0 0 11.78,8.644 0.415,0.415 0 0 0 11.723,8.596 h 0.565 a 0.415,0.415 0 0 0 -0.057,0.048 0.4,0.4 0 0 0 -0.07,0.085 h 0.21 A 0.307,0.307 0 0 0 12.395,8.7 v 0.029 h 0.236 a 0.088,0.088 0 0 1 0.074,-0.058 0.161,0.161 0 0 1 0.121,0.058 h 0.046 a 0.477,0.477 0 0 1 0.187,-0.539 0.437,0.437 0 0 1 0.106,0.539 h 0.07 a 0.108,0.108 0 0 1 0.1,0 v 0 h 0.389 L 13.692,8.635 13.939,8.71 A 1.4,1.4 0 0 0 14.148,7.988 C 14.174,7.309 13.71,7.194 13.506,7.192 Z m 0.076,2.967 H 10.41 a 0.203,0.203 0 1 0 0,0.406 h 3.172 a 0.203,0.203 0 1 0 0,-0.406 z M 10.89,9.962 c 0,0.069 0.112,0.126 0.249,0.126 0.137,0 0.248,-0.057 0.248,-0.126 0,-0.069 -0.111,-0.126 -0.248,-0.126 -0.137,0 -0.249,0.056 -0.249,0.126 z m -0.539,0.115 h 0.282 V 9.846 H 10.351 L 10.253,9.96 Z m 1.333,-0.2310003 h 0.624 V 10.077 h -0.624 z m 1.675,3e-7 v 0.231 h 0.282 L 13.74,9.96 13.641,9.846 Z m -0.753,0.116 c 0,0.069 0.11,0.126 0.248,0.126 0.138,0 0.248,-0.057 0.248,-0.126 0,-0.069 -0.111,-0.126 -0.248,-0.126 -0.137,0 -0.248,0.056 -0.248,0.126 z M 11.1,9.334 c -0.016,-0.027 -0.037,-0.026 -0.052,0 A 0.58,0.58 0 0 1 10.62,9.583 0.406,0.406 0 0 1 10.326,9.473 l 0.03,0.289 h 3.29 l 0.03,-0.289 a 0.406,0.406 0 0 1 -0.294,0.11 0.584,0.584 0 0 1 -0.428,-0.249 c -0.015,-0.025 -0.036,-0.026 -0.052,0 A 0.521,0.521 0 0 1 12.414,9.601 0.46,0.46 0 0 1 12,9.378 0.456,0.456 0 0 1 11.588,9.601 0.523,0.523 0 0 1 11.1,9.334 Z m 0.536,-0.603 0.024,0.024 c 0.078,0.075 0.168,0.11 0.2,0.08 0.032,-0.03 0.013,-0.059 -0.014,-0.105 h -0.21 z m 1.475,0.106 a 0.39,0.39 0 0 1 0.118,-0.106 h -0.068 a 1,1 0 0 1 -0.05,0.106 z M 13.334,8.73 a 0.242,0.242 0 0 1 -0.073,0.342 c -0.032,-0.074 -0.069,-0.081 -0.1,-0.074 -0.031,0.007 -0.062,0.026 -0.08,0.1 L 12.85,9.08 a 0.112,0.112 0 0 0 -0.085,-0.115 0.127,0.127 0 0 0 -0.13,0.072 0.467,0.467 0 0 1 0,-0.3 h -0.236 v 0.5 C 12.287,9.044 12.127,9.022 12.112,9.184 a 0.33,0.33 0 0 0 0.324,0.3 0.435,0.435 0 0 0 0.393,-0.251 l 0.231,0.018 a 0.374,0.374 0 0 0 0.459,0.2 c 0.1,-0.035 0.166,-0.087 0.143,-0.149 -0.023,-0.062 -0.117,-0.014 -0.185,0.012 0,0 0.1,-0.32 0.143,-0.457 0.012,0.038 0.069,0.174 0.143,0.132 0.04,-0.023 0.014,-0.117 -0.032,-0.253 h -0.389 z m -1.177,0 v 0 c -0.027,0.046 -0.034,0.086 -0.014,0.105 0.02,0.019 0.122,-0.005 0.2,-0.08 l 0.024,-0.024 h -0.21 z m -0.703,10e-4 h -0.079 a 0.454,0.454 0 0 1 -0.005,0.3 0.127,0.127 0 0 0 -0.13,-0.072 0.114,0.114 0 0 0 -0.085,0.115 l -0.231,0.018 c -0.018,-0.07 -0.045,-0.088 -0.079,-0.1 -0.034,-0.012 -0.071,0 -0.1,0.075 A 0.242,0.242 0 0 1 10.672,8.725 H 10.28 c -0.046,0.135 -0.071,0.229 -0.031,0.252 0.073,0.042 0.13,-0.094 0.142,-0.131 0.047,0.136 0.143,0.456 0.143,0.456 -0.068,-0.026 -0.158,-0.084 -0.185,-0.012 -0.027,0.072 0.046,0.114 0.143,0.149 a 0.374,0.374 0 0 0 0.459,-0.2 l 0.231,-0.018 a 0.434,0.434 0 0 0 0.393,0.252 c 0.164,0 0.337,-0.157 0.324,-0.3 -0.015,-0.162 -0.174,-0.139 -0.287,0.053 v -0.5 h -0.158 z m -0.275,0 H 11.135 Q 11.128,8.774 11.117,8.824 A 0.368,0.368 0 0 1 11.179,8.731 Z M 10.891,8.837 A 1.133,1.133 0 0 1 10.841,8.73 h -0.069 a 0.376,0.376 0 0 1 0.119,0.107 z M 12.885,8.824 C 12.878,8.791 12.873,8.76 12.868,8.731 h -0.046 a 0.325,0.325 0 0 1 0.063,0.093 z M 11.931,6.741 a 0.347,0.347 0 0 0 -0.268,0.271 h 0.268 z M 12,7.432 A 0.347,0.347 0 0 0 12.339,7.153 H 11.662 A 0.346,0.346 0 0 0 12,7.432 Z M 11.462,7.468 A 0.155,0.155 0 1 0 11.309,7.314 0.154,0.154 0 0 0 11.462,7.468 Z M 11.105,7.312 A 0.154,0.154 0 1 0 10.952,7.158 v 0 a 0.153,0.153 0 0 0 0.153,0.154 z M 12,7.476 a 0.105,0.105 0 0 0 -0.1,0.105 v 0 A 0.1,0.1 0 0 0 12,7.686 0.106,0.106 0 0 0 12.105,7.58 0.1,0.1 0 0 0 12,7.476 Z m 0,0.264 a 0.106,0.106 0 0 0 -0.1,0.106 v 0 a 0.1,0.1 0 0 0 0.1,0.1 v 0 a 0.106,0.106 0 0 0 0,-0.211 z m 0,0.265 v 0 a 0.105,0.105 0 0 0 0,0.21 0.105,0.105 0 0 0 0,-0.21 z m 0,0.264 v 0 a 0.1,0.1 0 0 0 -0.1,0.105 v 0 a 0.1,0.1 0 0 0 0.1,0.1 v 0 a 0.105,0.105 0 0 0 0,-0.21 z M 10.738,7.18 A 0.155,0.155 0 1 0 10.585,7.026 v 0 a 0.153,0.153 0 0 0 0.153,0.154 z m 3.067,-0.1679999 a 0.154,0.154 0 0 1 -0.154,0.154 0.154,0.154 0 0 1 -0.154,-0.154 0.154,0.154 0 0 1 0.154,-0.154 0.154,0.154 0 0 1 0.154,0.154 z M 14.1,7.47 A 0.153,0.153 0 1 0 14.252,7.315 0.153,0.153 0 0 0 14.1,7.47 Z M 14.005,7.319 A 0.155,0.155 0 1 0 13.852,7.165 0.154,0.154 0 0 0 14.005,7.319 Z M 13.265,7.18 A 0.155,0.155 0 1 0 13.112,7.026 v 0 A 0.153,0.153 0 0 0 13.265,7.18 Z M 11.834,6.696 v 0 z M 12.9,7.312 A 0.154,0.154 0 1 0 12.748,7.158 0.153,0.153 0 0 0 12.9,7.312 Z m -1,-0.805 a 0.113,0.113 0 0 1 -0.025,0.151 0.389,0.389 0 0 1 -0.043,0.038 h 0.337 A 0.433,0.433 0 0 1 12.129,6.66 0.113,0.113 0 0 1 12.104,6.509 c 0.024,-0.024 0.09,0 0.149,0.063 a 0.379,0.379 0 0 1 0.038,0.045 V 6.2 A 0.362,0.362 0 0 1 12.255,6.242 C 12.196,6.301 12.13,6.329 12.106,6.305 12.082,6.281 12.106,6.213 12.168,6.154 12.183,6.14 12.196,6.127 12.21,6.116 H 11.8 a 0.341,0.341 0 0 1 0.041,0.036 c 0.058,0.059 0.086,0.127 0.062,0.151 -0.024,0.024 -0.09,0 -0.149,-0.063 A 0.507,0.507 0 0 1 11.717,6.196 v 0.416 a 0.425,0.425 0 0 1 0.035,-0.041 c 0.06,-0.06 0.126,-0.088 0.148,-0.064 z m 0.642,0.961 a 0.155,0.155 0 0 0 0,-0.309 0.156,0.156 0 0 0 -0.154,0.155 v 0 a 0.154,0.154 0 0 0 0.154,0.154 z M 12.068,6.74 V 7.012 H 12.34 A 0.349,0.349 0 0 0 12.068,6.74 Z M 9.751,7.624 A 0.155,0.155 0 1 0 9.6,7.47 0.153,0.153 0 0 0 9.751,7.624 Z m 0.082,0.608 a 0.153,0.153 0 1 0 -0.3,0 v 0 a 0.153,0.153 0 1 0 0.3,0 z M 9.781,8.448 A 0.155,0.155 0 1 0 9.934,8.602 0.153,0.153 0 0 0 9.781,8.448 Z M 9.66,8 A 0.154,0.154 0 1 0 9.508,7.846 v 0 A 0.152,0.152 0 0 0 9.66,8 Z m 0.608,1.3 C 10.308,9.286 10.323,9.219 10.299,9.15 10.275,9.081 10.225,9.036 10.184,9.05 10.143,9.064 10.13,9.13 10.153,9.2 c 0.023,0.07 0.074,0.112 0.115,0.1 z M 10.352,7.167 A 0.155,0.155 0 1 0 10.199,7.012 v 0 a 0.155,0.155 0 0 0 0.153,0.155 z m 3.87,1.281 a 0.155,0.155 0 1 0 0.152,0.154 0.153,0.153 0 0 0 -0.152,-0.154 z m -0.404,0.6 c -0.041,-0.014 -0.092,0.031 -0.115,0.1 -0.023,0.069 -0.009,0.136 0.031,0.15 0.04,0.014 0.092,-0.031 0.115,-0.1 0.023,-0.069 0.009,-0.137 -0.031,-0.15 z M 12.116,8.962 A 0.115,0.115 0 1 0 12,9.078 0.115,0.115 0 0 0 12.116,8.962 Z m 2.227,-1.27 A 0.153,0.153 0 0 0 14.19,7.846 v 0 A 0.153,0.153 0 1 0 14.343,7.692 Z M 10,7.319 A 0.155,0.155 0 1 0 9.848,7.165 v 0 A 0.152,0.152 0 0 0 10,7.319 Z m 4.322,0.759 a 0.155,0.155 0 1 0 0.153,0.154 0.153,0.153 0 0 0 -0.153,-0.154 z m -4.134,6.389 a 0.593,0.593 0 0 0 0.422,0.177 0.6,0.6 0 0 0 0.6,-0.6 v -0.6 h -0.6 a 0.6,0.6 0 0 0 -0.422,0.177 0.608,0.608 0 0 0 0,0.854 z m 9.498,-1.996 a 0.073,0.073 0 1 0 0.073,0.073 0.073,0.073 0 0 0 -0.073,-0.073 z m -2.038,1.142 a 0.606,0.606 0 0 0 0,0.854 0.592,0.592 0 0 0 0.422,0.177 0.6,0.6 0 0 0 0.6,-0.6 v -0.6 h -0.6 a 0.592,0.592 0 0 0 -0.422,0.169 z M 6.272,13.386 a 0.614,0.614 0 0 0 -0.44,0.184 0.631,0.631 0 0 0 0,0.889 0.611,0.611 0 0 0 0.44,0.185 0.631,0.631 0 0 0 0.44,-1.074 0.615,0.615 0 0 0 -0.44,-0.184 z m 9.202,-1.902 V 5.254 H 8.536 v 6.23 H 2 v 4.957 h 6.536 v 2.3 h 6.938 v -2.3 H 22 v -4.957 z m 0.5,0.872 h 0.2 L 15.242,14.39 14.31,12.356 h 0.2 l 0.731,1.6 z m -7.3,-6.964 h 6.662 v 6.092 H 8.674 Z m 5.547,6.964 -0.471,2.677 h -0.186 l 0.471,-2.677 z m -1.793,0 v 2.674 h -0.183 v -2.675 z m -0.253,0 v 2.674 h -0.183 v -2.675 z m -1.565,0.826 a 0.861,0.861 0 0 0 -0.6,1.466 0.844,0.844 0 0 0 1.2,0 0.857,0.857 0 0 0 0.178,-0.266 V 15.03 H 11.206 V 14.892 A 1.023,1.023 0 0 1 9.878,14.779 1.047,1.047 0 0 1 10.61,13 h 1.033 v 2.033 H 11.46 v -1.852 z m 0.781,0.071 v 0.788 a 0.785,0.785 0 0 1 -0.781,0.788 0.768,0.768 0 0 1 -0.551,-0.231 0.792,0.792 0 0 1 0,-1.114 0.768,0.768 0 0 1 0.551,-0.231 z M 7.809,13.008 h 0.182 v 1.027 a 0.443,0.443 0 0 0 0.128,0.311 0.428,0.428 0 0 0 0.307,0.128 0.462,0.462 0 0 0 0.435,-0.465 v -1 h 0.183 v 1 A 0.643,0.643 0 0 1 8.426,14.659 0.61,0.61 0 0 1 7.99,14.476 v 0 A 0.619,0.619 0 0 1 7.809,14.035 Z M 4.676,15.024 3.747,13.7 h 0.482 a 0.463,0.463 0 0 0 0.427,-0.476 0.454,0.454 0 0 0 -0.13,-0.313 0.4,0.4 0 0 0 -0.3,-0.119 H 3.738 v 2.236 H 3.555 V 12.6 h 0.674 a 0.588,0.588 0 0 1 0.427,0.173 0.653,0.653 0 0 1 -0.427,1.105 H 4.1 l 0.8,1.142 z m 0.31,0 -0.751,-1.072 A 0.632,0.632 0 0 0 4.685,13.76 0.794,0.794 0 0 0 4.909,13.221 0.717,0.717 0 0 0 4.709,12.727 0.653,0.653 0 0 0 4.233,12.533 H 3.485 v 2.492 H 3.3 v -2.677 h 0.927 a 0.829,0.829 0 0 1 0.6,0.249 0.894,0.894 0 0 1 0.258,0.624 0.974,0.974 0 0 1 -0.278,0.67 0.842,0.842 0 0 1 -0.269,0.184 v 0 l 0.665,0.949 z M 7.02,14.771 a 1.051,1.051 0 0 1 -1.5,0 1.072,1.072 0 0 1 0.749,-1.825 1.043,1.043 0 0 1 0.748,0.313 1.077,1.077 0 0 1 0,1.512 z m 0.536,-1.764 h 0.182 v 1.027 a 0.694,0.694 0 0 0 0.2,0.491 0.678,0.678 0 0 0 0.486,0.2 0.666,0.666 0 0 0 0.474,-0.2 0.772,0.772 0 0 0 0.144,-0.209 v 0.558 A 0.622,0.622 0 0 1 8.424,15.498 0.611,0.611 0 0 1 7.988,15.315 0.619,0.619 0 0 1 7.826,15.028 H 8.02 a 0.431,0.431 0 0 0 0.406,0.285 0.437,0.437 0 0 0 0.435,-0.439 v -0.087 a 0.815,0.815 0 0 1 -0.435,0.125 v 0 A 0.857,0.857 0 0 1 7.811,14.655 0.879,0.879 0 0 1 7.556,14.033 Z m 0.87,2.748 A 0.873,0.873 0 0 1 7.57,15.029 h 0.186 a 0.692,0.692 0 0 0 0.184,0.337 0.681,0.681 0 0 0 0.972,0 0.69,0.69 0 0 0 0.2,-0.491 V 13.007 H 9.3 v 1.868 a 0.88,0.88 0 0 1 -0.255,0.622 0.862,0.862 0 0 1 -0.619,0.258 z m 6.91,2.853 H 8.674 v -2.167 h 6.662 z M 16.481,15.033 16.133,13.057 15.244,15 14.355,13.058 14.006,15.034 h -0.185 l 0.456,-2.586 0.967,2.112 v 0 l 0.967,-2.112 0.456,2.586 z m 0.257,0 -0.471,-2.677 h 0.185 l 0.472,2.677 z M 18.85,14.04 a 0.785,0.785 0 0 1 -0.78,0.788 0.768,0.768 0 0 1 -0.552,-0.231 0.794,0.794 0 0 1 0,-1.114 0.768,0.768 0 0 1 0.552,-0.231 h 0.78 z m 0.252,0.989 H 18.92 v -1.848 h -0.85 a 0.86,0.86 0 0 0 -0.6,1.466 0.843,0.843 0 0 0 1.2,0 0.86,0.86 0 0 0 0.179,-0.266 v 0.648 H 18.666 V 14.891 A 1.023,1.023 0 0 1 17.338,14.778 1.047,1.047 0 0 1 18.07,13 h 1.03 z m 0.548,0 h -0.183 v -2.024 h 0.183 z m 0.253,0 H 19.72 v -2.024 h 0.18 z m -0.217,-2.247 a 0.238,0.238 0 0 1 0,-0.475 v 0 a 0.238,0.238 0 0 1 0,0.475 z m 0.792,2.247 H 20.3 v -2.674 h 0.182 z m 0.253,0 h -0.183 v -2.674 h 0.183 z M 6.272,13.131 a 0.885,0.885 0 0 0 -0.619,1.509 0.869,0.869 0 0 0 1.238,0 v 0 a 0.891,0.891 0 0 0 0,-1.25 0.864,0.864 0 0 0 -0.619,-0.259 z m 0,1.7 a 0.794,0.794 0 0 1 -0.57,-0.238 0.818,0.818 0 0 1 0,-1.15 0.8,0.8 0 0 1 1.139,0 v 0 a 0.815,0.815 0 0 1 -0.569,1.388 z"/>

</svg>
